X: 20
T: Roye
T: for three
C: Richard Schweitzer, CC BY-NC-SA 3.0
P: AA BBB CCCC DDD
N: Permission granted to copy within the SCA.
K: F major
M: 6/8
L: 1/8
P: A
"^Drone: F/C"F2F G2A | c2c cBA | G2F FG2 | F6 :: \
P: B (3x)
F3 G3 | A3 A3 "^(3)":: 
P: C (4x)
c3 F2A | c2B A"^        (4)"F2 :: \
P: D (3x)
F3 G2A | c3 c2A | G2F F2G | F6 "^(3)":| 


